build/documents/SignSolid.svg

<svg xmlns="http://www.w3.org/2000/svg" fill="none" viewBox="0 0 24 24" focusable="false"><path d="M0 0H24V24H0z"/><path fill="#74767B" fill-rule="evenodd" d="M7.39651 4.78441C7.90431 4.27661 8.72761 4.27662 9.23541 4.78441L10.3685 5.91748C10.6393 6.18828 10.6422 6.62642 10.375 6.90079L8.35598 8.97432C8.08373 9.25391 7.63543 9.2569 7.35948 8.98095L6.2396 7.86107C5.7318 7.35327 5.7318 6.52997 6.2396 6.02217L7.39651 4.78441ZM9.26242 9.90713C8.99525 10.1815 8.99817 10.6196 9.26897 10.8904L16.7144 18.3358C17.112 18.7335 17.6134 19.0114 18.1614 19.1379L19.8929 19.5375C20.8292 19.7535 21.1279 19.3741 20.9118 18.4378L20.5122 16.7063C20.3857 16.1583 20.1078 15.6569 19.7102 15.2592L12.278 7.82697C12.002 7.55102 11.5537 7.55401 11.2815 7.8336L9.26242 9.90713ZM9.09456 18.915C8.54196 19.3812 7.82122 19.9893 6.64024 19.9893C4.56871 19.9893 3.60182 18.6412 3.2204 18.1094C3.18673 18.0624 3.15762 18.0218 3.13272 17.9891C2.91537 17.7034 2.97078 17.2956 3.25648 17.0782C3.54219 16.8609 3.95 16.9163 4.16735 17.202C4.20076 17.2459 4.2358 17.2938 4.27298 17.3447C4.65269 17.864 5.25612 18.6893 6.64024 18.6893C7.32318 18.6893 7.72059 18.3729 8.2889 17.8938L8.31758 17.8697C8.8719 17.4021 9.59469 16.7924 10.7816 16.7924C12.7617 16.7924 13.831 18.1906 14.243 18.7294C14.3009 18.8051 14.3458 18.8638 14.3784 18.8993C14.6214 19.1635 14.6042 19.5747 14.34 19.8177C14.0757 20.0607 13.6645 20.0435 13.4215 19.7793C13.3346 19.6847 13.2452 19.5736 13.1492 19.4543C12.68 18.8712 12.0535 18.0924 10.7816 18.0924C10.0938 18.0924 9.69383 18.4098 9.12679 18.8878L9.09456 18.915Z"/></svg>

<svg xmlns="http://www.w3.org/2000/svg" fill="none" viewBox="0 0 24 24" focusable="false"><path fill="#74767B" fill-rule="evenodd" d="M9.23 4.78c-.51-.51-1.33-.51-1.84 0L6.23 6.02c-.5.5-.5 1.33 0 1.84l1.12 1.12c.28.27.73.27 1-.01l2.02-2.07c.27-.28.26-.72-.01-.99zm.03 5.12c-.27.28-.27.71 0 .99l7.45 7.44c.4.4.9.68 1.45.8l1.73.4c.93.22 1.23-.16 1.02-1.1l-.4-1.73c-.13-.55-.41-1.05-.8-1.45l-7.44-7.43a.697.697 0 0 0-.99.01zm-.17 9.01c-.55.47-1.27 1.07-2.45 1.07-2.08 0-3.04-1.34-3.42-1.88a.5.5 0 0 1-.09-.12.65.65 0 0 1 .12-.91c.29-.21.69-.16.91.13.04.04.07.09.11.14.38.52.98 1.34 2.37 1.34.68 0 1.08-.31 1.64-.79l.03-.03c.56-.46 1.28-1.07 2.47-1.07 1.98 0 3.05 1.4 3.46 1.93.06.08.1.14.13.17.25.27.23.68-.04.92-.26.25-.67.23-.91-.04-.09-.09-.18-.2-.28-.32-.47-.58-1.09-1.36-2.36-1.36-.69 0-1.09.31-1.66.79z"/></svg>
